; generated by Slic3r 1.3.1-dev (Build (Unknown revision)) on 2021-07-27 at 14:43:28

; external perimeters extrusion width = 1.32mm (12.75mm^3/s)
; perimeters extrusion width = 1.26mm (12.03mm^3/s)
; infill extrusion width = 2.00mm (20.91mm^3/s)
; solid infill extrusion width = 2.00mm (41.82mm^3/s)
; top infill extrusion width = 1.26mm (18.04mm^3/s)

M107 ; disable fan
G92 E0 ; reset extrusion distance
M104 S200 ; set temperature
G28 ; home all axes
G1 Z5 F5000 ; lift nozzle

; Filament gcode

M109 S200 ; set temperature and wait for it to be reached
G21 ; set units to millimeters
G90 ; use absolute coordinates
M82 ; use absolute distances for extrusion
G92 E0 ; reset extrusion distance
G1 Z0.250 F1800.000 ; move to next layer (0)
G1 E-2.00000 F2400.00000 ; retract extruder 0
G92 E0 ; reset extrusion distance
G1 X181.200 Y200.411 F1800.000 ; move to first external perimeter point
G1 E2.00000 F2400.00000 ; unretract extruder 0
G1 F600.000
G1 X189.672 Y200.915 E2.01618 ; external perimeter
G1 X193.472 Y208.503 E2.03236 ; external perimeter
G1 X188.800 Y215.589 E2.04853 ; external perimeter
G1 X180.328 Y215.085 E2.06471 ; external perimeter
G1 X176.528 Y207.497 E2.08089 ; external perimeter
G1 X181.101 Y200.562 E2.09673 ; external perimeter
G1 E0.09673 F2400.00000 ; retract extruder 0
G92 E0 ; reset extrusion distance
G1 X178.755 Y198.799 F1800.000 ; move to first external perimeter point
G1 E2.00000 F2400.00000 ; unretract extruder 0
G1 F600.000
G1 X174.714 Y190.731 E2.01720 ; external perimeter
G1 X176.402 Y190.831 E2.02042 ; external perimeter
G1 X177.333 Y189.420 E2.02365 ; external perimeter
G1 X181.373 Y197.488 E2.04085 ; external perimeter
G1 X189.845 Y197.991 E2.05702 ; external perimeter
G1 X194.812 Y190.458 E2.07422 ; external perimeter
G1 X195.570 Y191.970 E2.07745 ; external perimeter
G1 X197.257 Y192.070 E2.08067 ; external perimeter
G1 X192.290 Y199.603 E2.09787 ; external perimeter
G1 X196.091 Y207.192 E2.11405 ; external perimeter
G1 X205.098 Y207.727 E2.13125 ; external perimeter
G1 X204.167 Y209.138 E2.13447 ; external perimeter
G1 X204.924 Y210.650 E2.13770 ; external perimeter
G1 X195.917 Y210.115 E2.15490 ; external perimeter
G1 X191.245 Y217.201 E2.17107 ; external perimeter
G1 X195.286 Y225.269 E2.18827 ; external perimeter
G1 X193.598 Y225.169 E2.19150 ; external perimeter
G1 X192.667 Y226.580 E2.19472 ; external perimeter
G1 X188.627 Y218.512 E2.21192 ; external perimeter
G1 X180.155 Y218.009 E2.22810 ; external perimeter
G1 X175.188 Y225.542 E2.24530 ; external perimeter
G1 X174.430 Y224.030 E2.24852 ; external perimeter
G1 X172.743 Y223.930 E2.25175 ; external perimeter
G1 X177.710 Y216.397 E2.26895 ; external perimeter
G1 X173.909 Y208.808 E2.28512 ; external perimeter
G1 X164.902 Y208.273 E2.30232 ; external perimeter
G1 X165.833 Y206.862 E2.30555 ; external perimeter
G1 X165.076 Y205.350 E2.30877 ; external perimeter
G1 X174.083 Y205.885 E2.32597 ; external perimeter
G1 X178.656 Y198.949 E2.34180 ; external perimeter
G1 E0.34180 F2400.00000 ; retract extruder 0
G92 E0 ; reset extrusion distance
G1 X177.453 Y189.659 F1800.000 ; move to first perimeter point
G1 E2.00000 F2400.00000 ; unretract extruder 0
G1 F600.000
G1 X181.731 Y183.172 E2.01839 ; perimeter
G1 F600.000
G1 X181.951 Y182.919 E2.01921 ; perimeter
G1 F600.000
G1 X182.171 Y182.666 E2.02006 ; perimeter
G1 X182.336 Y182.654 E2.02048 ; perimeter
G1 F600.000
G1 X182.667 Y182.630 E2.02130 ; perimeter
G1 F600.000
G1 X182.832 Y182.618 E2.02169 ; perimeter
G1 X190.154 Y183.051 E2.03907 ; perimeter
G1 F600.000
G1 X190.481 Y183.115 E2.03989 ; perimeter
G1 F600.000
G1 X190.808 Y183.178 E2.04074 ; perimeter
G1 X190.902 Y183.316 E2.04116 ; perimeter
G1 F600.000
G1 X191.089 Y183.591 E2.04198 ; perimeter
G1 F600.000
G1 X191.183 Y183.729 E2.04237 ; perimeter
G1 X194.665 Y190.682 E2.06077 ; perimeter
G1 E0.06077 F2400.00000 ; retract extruder 0
G92 E0 ; reset extrusion distance
G1 X197.109 Y192.296 F1800.000 ; move to first perimeter point
G1 E2.00000 F2400.00000 ; unretract extruder 0
G1 F600.000
G1 X204.871 Y192.755 E2.01842 ; perimeter
G1 F600.000
G1 X205.198 Y192.819 E2.01924 ; perimeter
G1 F600.000
G1 X205.526 Y192.882 E2.02008 ; perimeter
G1 X205.619 Y193.020 E2.02051 ; perimeter
G1 F600.000
G1 X205.807 Y193.295 E2.02133 ; perimeter
G1 F600.000
G1 X205.901 Y193.433 E2.02172 ; perimeter
G1 X209.184 Y199.989 E2.03907 ; perimeter
G1 F600.000
G1 X209.292 Y200.304 E2.03989 ; perimeter
G1 F600.000
G1 X209.400 Y200.619 E2.04073 ; perimeter
G1 X209.328 Y200.769 E2.04116 ; perimeter
G1 F600.000
G1 X209.183 Y201.069 E2.04197 ; perimeter
G1 F600.000
G1 X209.111 Y201.219 E2.04237 ; perimeter
G1 X204.830 Y207.711 E2.06076 ; perimeter
G1 E0.06076 F2400.00000 ; retract extruder 0
G92 E0 ; reset extrusion distance
G1 X204.657 Y210.634 F1800.000 ; move to first perimeter point
G1 E2.00000 F2400.00000 ; unretract extruder 0
G1 F600.000
G1 X208.139 Y217.587 E2.01840 ; perimeter
G1 X208.193 Y217.744 E2.01879 ; perimeter
G1 F600.000
G1 X208.301 Y218.059 E2.01961 ; perimeter
G1 F600.000
G1 X208.355 Y218.217 E2.02003 ; perimeter
G1 X208.210 Y218.517 E2.02088 ; perimeter
G1 F600.000
G1 X208.066 Y218.817 E2.02170 ; perimeter
G1 F600.000
G1 X204.029 Y224.938 E2.03904 ; perimeter
G1 X203.920 Y225.064 E2.03944 ; perimeter
G1 F600.000
G1 X203.701 Y225.315 E2.04026 ; perimeter
G1 F600.000
G1 X203.592 Y225.441 E2.04068 ; perimeter
G1 X203.260 Y225.466 E2.04153 ; perimeter
G1 F600.000
G1 X202.928 Y225.490 E2.04234 ; perimeter
G1 F600.000
G1 X195.166 Y225.029 E2.06074 ; perimeter
G1 E0.06074 F2400.00000 ; retract extruder 0
G92 E0 ; reset extrusion distance
G1 X192.547 Y226.341 F1800.000 ; move to first perimeter point
G1 E2.00000 F2400.00000 ; unretract extruder 0
G1 F600.000
G1 X188.267 Y232.832 E2.01840 ; perimeter
G1 X188.157 Y232.958 E2.01879 ; perimeter
G1 F600.000
G1 X187.939 Y233.209 E2.01961 ; perimeter
G1 F600.000
G1 X187.829 Y233.335 E2.02003 ; perimeter
G1 X187.497 Y233.359 E2.02088 ; perimeter
G1 F600.000
G1 X187.165 Y233.384 E2.02170 ; perimeter
G1 F600.000
G1 X179.846 Y232.949 E2.03904 ; perimeter
G1 X179.682 Y232.917 E2.03944 ; perimeter
G1 F600.000
G1 X179.355 Y232.854 E2.04026 ; perimeter
G1 F600.000
G1 X179.192 Y232.822 E2.04068 ; perimeter
G1 X179.004 Y232.546 E2.04153 ; perimeter
G1 F600.000
G1 X178.817 Y232.271 E2.04234 ; perimeter
G1 F600.000
G1 X175.335 Y225.318 E2.06074 ; perimeter
G1 E0.06074 F2400.00000 ; retract extruder 0
G92 E0 ; reset extrusion distance
G1 X172.890 Y223.706 F1800.000 ; move to first perimeter point
G1 E2.00000 F2400.00000 ; unretract extruder 0
G1 F600.000
G1 X165.128 Y223.245 E2.01840 ; perimeter
G1 F600.000
G1 X164.801 Y223.181 E2.01921 ; perimeter
G1 F600.000
G1 X164.474 Y223.118 E2.02006 ; perimeter
G1 X164.381 Y222.980 E2.02048 ; perimeter
G1 F600.000
G1 X164.193 Y222.705 E2.02130 ; perimeter
G1 F600.000
G1 X164.099 Y222.567 E2.02170 ; perimeter
G1 X160.816 Y216.011 E2.03904 ; perimeter
G1 F600.000
G1 X160.708 Y215.696 E2.03986 ; perimeter
G1 F600.000
G1 X160.600 Y215.381 E2.04071 ; perimeter
G1 X160.672 Y215.231 E2.04113 ; perimeter
G1 F600.000
G1 X160.817 Y214.931 E2.04195 ; perimeter
G1 F600.000
G1 X160.889 Y214.781 E2.04234 ; perimeter
G1 X165.170 Y208.289 E2.06074 ; perimeter
G1 E0.06074 F2400.00000 ; retract extruder 0
G92 E0 ; reset extrusion distance
G1 X165.343 Y205.366 F1800.000 ; move to first perimeter point
G1 E2.00000 F2400.00000 ; unretract extruder 0
G1 F600.000
G1 X161.861 Y198.413 E2.01840 ; perimeter
G1 F600.000
G1 X161.753 Y198.098 E2.01921 ; perimeter
G1 F600.000
G1 X161.645 Y197.783 E2.02006 ; perimeter
G1 X161.717 Y197.633 E2.02048 ; perimeter
G1 F600.000
G1 X161.862 Y197.333 E2.02130 ; perimeter
G1 F600.000
G1 X161.934 Y197.183 E2.02170 ; perimeter
G1 X165.971 Y191.062 E2.03904 ; perimeter
G1 F600.000
G1 X166.189 Y190.810 E2.03986 ; perimeter
G1 F600.000
G1 X166.408 Y190.559 E2.04071 ; perimeter
G1 X166.574 Y190.547 E2.04113 ; perimeter
G1 F600.000
G1 X166.906 Y190.522 E2.04195 ; perimeter
G1 F600.000
G1 X167.072 Y190.510 E2.04234 ; perimeter
G1 X174.834 Y190.971 E2.06074 ; perimeter
G1 E0.06074 F2400.00000 ; retract extruder 0
G92 E0 ; reset extrusion distance
G1 X176.900 Y191.825 F1800.000 ; move to first infill point
G1 E2.00000 F2400.00000 ; unretract extruder 0
G1 F600.000
G1 X176.964 Y191.953 E2.00018 ; infill
G1 F600.000
G1 X177.028 Y192.082 E2.00035 ; infill
G1 F600.000
G1 X177.092 Y192.210 E2.00050 ; infill
G1 F600.000
G1 X180.378 Y198.770 E2.00759 ; infill
G1 F600.000
G1 X180.443 Y198.899 E2.00774 ; infill
G1 F600.000
G1 X180.403 Y198.960 E2.00782 ; infill
G1 F600.000
G1 X180.323 Y199.081 E2.00796 ; infill
G1 F600.000
G1 X175.000 Y207.155 E2.01686 ; infill
G1 X175.000 Y207.155 F1800.000 ; move to first infill point
G1 F600.000
G1 X177.198 Y211.826 E2.02200 ; infill
G1 F600.000
G1 X179.397 Y216.497 E2.02754 ; infill
G1 X179.365 Y216.432 E2.02762 ; infill
G1 F600.000
G1 X179.300 Y216.303 E2.02777 ; infill
G1 F600.000
G1 X174.970 Y207.656 E2.03666 ; infill
G1 F600.000
G1 X174.905 Y207.526 E2.03680 ; infill
G1 F600.000
G1 X174.840 Y207.397 E2.03696 ; infill
G1 F600.000
G1 X174.695 Y207.388 E2.03711 ; infill
G1 F600.000
G1 X167.371 Y206.953 E2.04420 ; infill
G1 F600.000
G1 X167.228 Y206.944 E2.04436 ; infill
G1 F600.000
G1 X167.085 Y206.936 E2.04452 ; infill
G1 F600.000
G1 X166.942 Y206.927 E2.04470 ; infill
G1 E0.04470 F2400.00000 ; retract extruder 0
G92 E0 ; reset extrusion distance
G1 X179.397 Y216.497 F1800.000 ; move to first infill point
G1 E2.00000 F2400.00000 ; unretract extruder 0
G1 F600.000
G1 X179.542 Y216.506 E2.00016 ; infill
G1 F600.000
G1 X179.687 Y216.514 E2.00030 ; infill
G1 X179.687 Y216.514 F1800.000 ; move to first infill point
G1 F600.000
G1 X189.340 Y217.088 E2.00919 ; infill
G1 F600.000
G1 X189.485 Y217.096 E2.00934 ; infill
G1 F600.000
G1 X189.557 Y217.101 E2.00942 ; infill
G1 X189.622 Y217.230 E2.00957 ; infill
G1 F600.000
G1 X189.687 Y217.360 E2.00972 ; infill
G1 X189.687 Y217.360 F1800.000 ; move to first infill point
G1 F600.000
G1 X192.875 Y223.726 E2.01626 ; infill
G1 E0.01626 F2400.00000 ; retract extruder 0
G92 E0 ; reset extrusion distance
G1 X189.557 Y217.101 F1800.000 ; move to first infill point
G1 E2.00000 F2400.00000 ; unretract extruder 0
G1 F600.000
G1 X189.637 Y216.980 E2.00016 ; infill
G1 F600.000
G1 X189.717 Y216.859 E2.00030 ; infill
G1 X189.717 Y216.859 F1800.000 ; move to first infill point
G1 F600.000
G1 X195.040 Y208.785 E2.00919 ; infill
G1 F600.000
G1 X195.120 Y208.664 E2.00934 ; infill
G1 F600.000
G1 X195.160 Y208.603 E2.00942 ; infill
G1 X195.095 Y208.474 E2.00957 ; infill
G1 F600.000
G1 X195.030 Y208.344 E2.00972 ; infill
G1 X195.030 Y208.344 F1800.000 ; move to first infill point
G1 F600.000
G1 X190.700 Y199.697 E2.01861 ; infill
G1 F600.000
G1 X190.635 Y199.568 E2.01875 ; infill
G1 F600.000
G1 X190.603 Y199.503 E2.01883 ; infill
G1 X190.530 Y199.499 F1800.000 ; move to first infill point
G1 F600.000
G1 X190.603 Y199.503 E2.01891 ; infill
G1 X190.682 Y199.382 E2.01906 ; infill
G1 F600.000
G1 X190.762 Y199.261 E2.01921 ; infill
G1 X190.762 Y199.261 F1800.000 ; move to first infill point
G1 F600.000
G1 X194.682 Y193.317 E2.02576 ; infill
G1 E0.02576 F2400.00000 ; retract extruder 0
G92 E0 ; reset extrusion distance
G1 X190.530 Y199.499 F1800.000 ; move to first infill point
G1 E2.00000 F2400.00000 ; unretract extruder 0
G1 F600.000
G1 X190.386 Y199.490 E2.00014 ; infill
G1 F600.000
G1 X180.732 Y198.917 E2.00904 ; infill
G1 F600.000
G1 X180.587 Y198.908 E2.00918 ; infill
G1 F600.000
G1 X180.443 Y198.899 E2.00934 ; infill
G1 E0.00934 F2400.00000 ; retract extruder 0
G92 E0 ; reset extrusion distance
G1 X195.160 Y208.603 F1800.000 ; move to first infill point
G1 E2.00000 F2400.00000 ; unretract extruder 0
G1 F600.000
G1 X195.305 Y208.612 E2.00016 ; infill
G1 F600.000
G1 X195.449 Y208.621 E2.00030 ; infill
G1 F600.000
G1 X202.629 Y209.047 E2.00691 ; infill
G1 F600.000
G1 X202.772 Y209.056 E2.00706 ; infill
G1 F600.000
G1 X202.915 Y209.064 E2.00722 ; infill
G1 F600.000
G1 X203.058 Y209.073 E2.00739 ; infill
G1 E0.00739 F2400.00000 ; retract extruder 0
G92 E0 ; reset extrusion distance
G1 X179.397 Y216.497 F1800.000 ; move to first infill point
G1 E2.00000 F2400.00000 ; unretract extruder 0
G1 F600.000
G1 X179.318 Y216.618 E2.00015 ; infill
G1 F600.000
G1 X175.279 Y222.743 E2.00724 ; infill
G1 F600.000
G1 X175.200 Y222.863 E2.00740 ; infill
G1 F600.000
G1 X175.121 Y222.983 E2.00756 ; infill
G1 F600.000
G1 X175.042 Y223.102 E2.00774 ; infill
G1 Z1.450 F1800.000 ; move to next layer (1)
G1 X180.330 Y218.360 F1800.000 ; move to first external perimeter point
G1 F600.000
G1 X188.411 Y218.840 E2.03694 ; external perimeter
G1 X192.035 Y226.078 E2.06614 ; external perimeter
G1 X187.579 Y232.835 E2.09534 ; external perimeter
G1 X179.499 Y232.355 E2.12454 ; external perimeter
G1 X175.875 Y225.118 E2.15374 ; external perimeter
G1 X180.231 Y218.510 E2.18229 ; external perimeter
G1 X177.318 Y216.374 F1800.000 ; move to first external perimeter point
G1 F600.000
G1 X172.862 Y223.131 E2.21149 ; external perimeter
G1 X164.782 Y222.651 E2.24069 ; external perimeter
G1 X161.157 Y215.414 E2.26989 ; external perimeter
G1 X165.613 Y208.656 E2.29909 ; external perimeter
G1 X173.693 Y209.136 E2.32829 ; external perimeter
G1 X177.237 Y216.213 E2.35685 ; external perimeter
G1 X173.907 Y205.534 F1800.000 ; move to first external perimeter point
G1 F600.000
G1 X165.827 Y205.054 E2.38605 ; external perimeter
G1 X162.202 Y197.816 E2.41525 ; external perimeter
G1 X166.658 Y191.058 E2.44445 ; external perimeter
G1 X174.738 Y191.538 E2.47365 ; external perimeter
G1 X178.363 Y198.776 E2.50285 ; external perimeter
G1 X174.006 Y205.383 E2.53140 ; external perimeter
G1 X181.589 Y197.160 F1800.000 ; move to first external perimeter point
G1 F600.000
G1 X177.965 Y189.922 E2.56060 ; external perimeter
G1 X182.421 Y183.165 E2.58980 ; external perimeter
G1 X190.501 Y183.645 E2.61900 ; external perimeter
G1 X194.125 Y190.882 E2.64820 ; external perimeter
G1 X189.670 Y197.640 E2.67740 ; external perimeter
G1 X181.769 Y197.171 E2.70595 ; external perimeter
G1 X181.376 Y200.762 F1800.000 ; move to first external perimeter point
G1 F600.000
G1 X189.456 Y201.242 E2.73515 ; external perimeter
G1 X193.080 Y208.480 E2.76435 ; external perimeter
G1 X188.624 Y215.238 E2.79355 ; external perimeter
G1 X180.544 Y214.758 E2.82275 ; external perimeter
G1 X176.920 Y207.520 E2.85195 ; external perimeter
G1 X181.276 Y200.913 E2.88050 ; external perimeter
G1 X192.682 Y199.626 F1800.000 ; move to first external perimeter point
G1 F600.000
G1 X197.138 Y192.869 E2.90970 ; external perimeter
G1 X205.218 Y193.349 E2.93890 ; external perimeter
G1 X208.843 Y200.586 E2.96810 ; external perimeter
G1 X204.387 Y207.344 E2.99730 ; external perimeter
G1 X196.307 Y206.864 E3.02650 ; external perimeter
G1 X192.763 Y199.787 E3.05505 ; external perimeter
G1 X196.093 Y210.466 F1800.000 ; move to first external perimeter point
G1 F600.000
G1 X204.173 Y210.946 E3.08425 ; external perimeter
G1 X207.798 Y218.184 E3.11345 ; external perimeter
G1 X203.342 Y224.942 E3.14265 ; external perimeter
G1 X195.262 Y224.462 E3.17185 ; external perimeter
G1 X191.637 Y217.224 E3.20105 ; external perimeter
G1 X195.994 Y210.617 E3.22961 ; external perimeter
G1 X204.559 Y209.162 F1800.000 ; move to first external perimeter point
G1 F600.000
G1 X209.117 Y218.262 E3.26632 ; external perimeter
G1 X203.934 Y226.123 E3.30029 ; external perimeter
G1 X193.774 Y225.520 E3.33701 ; external perimeter
G1 X188.171 Y234.017 E3.37372 ; external perimeter
G1 X178.772 Y233.458 E3.40769 ; external perimeter
G1 X174.214 Y224.358 E3.44440 ; external perimeter
G1 X164.054 Y223.755 E3.48112 ; external perimeter
G1 X159.838 Y215.335 E3.51509 ; external perimeter
G1 X165.441 Y206.838 E3.55180 ; external perimeter
G1 X160.883 Y197.738 E3.58852 ; external perimeter
G1 X166.066 Y189.877 E3.62249 ; external perimeter
G1 X176.226 Y190.480 E3.65920 ; external perimeter
G1 X181.829 Y181.983 E3.69592 ; external perimeter
