; generated by Slic3r 1.3.1-dev (Build (Unknown revision)) on 2021-07-27 at 14:43:28

; external perimeters extrusion width = 1.32mm (12.75mm^3/s)
; perimeters extrusion width = 1.26mm (12.03mm^3/s)
; infill extrusion width = 2.00mm (20.91mm^3/s)
; solid infill extrusion width = 2.00mm (41.82mm^3/s)
; top infill extrusion width = 1.26mm (18.04mm^3/s)

M107 ; disable fan
G92 E0 ; reset extrusion distance
M104 S200 ; set temperature
G28 ; home all axes
G1 Z5 F5000 ; lift nozzle

; Filament gcode

M109 S200 ; set temperature and wait for it to be reached
G21 ; set units to millimeters
G90 ; use absolute coordinates
M82 ; use absolute distances for extrusion
G92 E0 ; reset extrusion distance
G1 Z0.250 F1800.000 ; move to next layer (0)
G1 E-2.00000 F2400.00000 ; retract extruder 0
G92 E0 ; reset extrusion distance
G1 X182.332 Y203.174 F1800.000 ; move to first external small perimeter point
G1 E2.00000 F2400.00000 ; unretract extruder 0
G1 F600.000
G1 X188.279 Y203.526 E2.01107 ; external small perimeter
G1 X190.947 Y208.852 E2.02214 ; external small perimeter
G1 X187.668 Y213.826 E2.03322 ; external small perimeter
G1 X181.721 Y213.474 E2.04429 ; external small perimeter
G1 X179.053 Y208.148 E2.05536 ; external small perimeter
G1 X182.233 Y203.324 E2.06610 ; external small perimeter
G1 E0.06610 F2400.00000 ; retract extruder 0
G92 E0 ; reset extrusion distance
G1 X182.790 Y205.922 F1800.000 ; move to first infill point
G1 E2.00000 F2400.00000 ; unretract extruder 0
G1 F600.000
G1 X182.579 Y205.909 E2.00047 ; infill
G1 X182.146 Y206.565 E2.00222 ; infill
G1 X184.287 Y204.425 E2.00898 ; infill
G1 X187.371 Y204.608 E2.01587 ; infill
G1 X181.333 Y210.645 E2.03491 ; infill
G1 X182.196 Y212.367 E2.03920 ; infill
G1 X182.840 Y212.405 E2.04064 ; infill
G1 X188.741 Y206.504 E2.05925 ; infill
G1 X189.477 Y207.972 E2.06292 ; infill
G1 X187.422 Y211.090 E2.07125 ; infill
G1 X185.924 Y212.588 E2.07597 ; infill
G1 Z1.450 F1800.000 ; move to next layer (1)
G1 X182.156 Y202.823 F1800.000 ; move to first external small perimeter point
G1 F600.000
G1 X188.495 Y203.198 E2.09830 ; external small perimeter
G1 X191.339 Y208.876 E2.12064 ; external small perimeter
G1 X187.844 Y214.177 E2.14297 ; external small perimeter
G1 X181.505 Y213.802 E2.16531 ; external small perimeter
G1 X178.661 Y208.124 E2.18764 ; external small perimeter
G1 X182.057 Y202.973 E2.20934 ; external small perimeter
G1 X188.147 Y205.070 F1800.000 ; move to first infill point
G1 F1200.000
G1 X187.079 Y204.002 E2.21864 ; infill
G1 X184.283 Y203.836 E2.23589 ; infill
G1 X190.070 Y209.624 E2.28629 ; infill
G1 X189.024 Y211.209 E2.29799 ; infill
G1 X182.021 Y204.205 E2.35898 ; infill
G1 X180.976 Y205.791 E2.37068 ; infill
G1 X187.979 Y212.795 E2.43167 ; infill
G1 X187.660 Y213.279 E2.43524 ; infill
G1 X185.717 Y213.164 E2.44723 ; infill
G1 X179.930 Y207.376 E2.49763 ; infill
G1 X179.727 Y207.685 E2.49991 ; infill
G1 X181.853 Y211.930 E2.52914 ; infill
G1 X182.921 Y212.998 E2.53844 ; infill
G1 Z2.650 F1800.000 ; move to next layer (2)
G1 X182.156 Y202.823 F1800.000 ; move to first external small perimeter point
G1 F600.000
G1 X188.495 Y203.198 E2.56077 ; external small perimeter
G1 X191.339 Y208.876 E2.58311 ; external small perimeter
G1 X187.844 Y214.177 E2.60544 ; external small perimeter
G1 X181.505 Y213.802 E2.62778 ; external small perimeter
G1 X178.661 Y208.124 E2.65011 ; external small perimeter
G1 X182.057 Y202.973 E2.67181 ; external small perimeter
G1 X182.340 Y204.789 F1800.000 ; move to first infill point
G1 F1200.000
G1 X183.407 Y203.721 E2.68082 ; infill
G1 X185.813 Y203.864 E2.69520 ; infill
G1 X180.126 Y209.551 E2.74317 ; infill
G1 X180.977 Y211.249 E2.75450 ; infill
G1 X188.172 Y204.053 E2.81521 ; infill
G1 X189.023 Y205.751 E2.82654 ; infill
G1 X181.828 Y212.947 E2.88724 ; infill
G1 X181.853 Y212.998 E2.88758 ; infill
G1 X184.187 Y213.136 E2.90153 ; infill
G1 X189.874 Y207.449 E2.94951 ; infill
G1 X190.273 Y208.247 E2.95483 ; infill
G1 X187.661 Y212.211 E2.98315 ; infill
G1 X186.593 Y213.279 E2.99216 ; infill
M106 S244.8 ; enable fan
G1 Z3.850 F1800.000 ; move to next layer (3)
G1 X182.156 Y202.823 F1800.000 ; move to first external small perimeter point
G1 F600.000
G1 X188.495 Y203.198 E3.01450 ; external small perimeter
G1 X191.339 Y208.876 E3.03683 ; external small perimeter
G1 X187.844 Y214.177 E3.05916 ; external small perimeter
G1 X181.505 Y213.802 E3.08150 ; external small perimeter
G1 X178.661 Y208.124 E3.10383 ; external small perimeter
G1 X182.057 Y202.973 E3.12553 ; external small perimeter
G1 X188.565 Y205.904 F1800.000 ; move to first infill point
G1 F600.000
G1 X186.637 Y203.976 E3.14126 ; infill
G1 X183.362 Y203.782 E3.16018 ; infill
G1 X189.726 Y210.145 E3.21210 ; infill
G1 X188.502 Y212.002 E3.22492 ; infill
G1 X181.498 Y204.998 E3.28206 ; infill
G1 X180.274 Y206.855 E3.29488 ; infill
G1 X186.638 Y213.218 E3.34679 ; infill
G1 X183.363 Y213.024 E3.36572 ; infill
G1 X181.435 Y211.096 E3.38145 ; infill
M106 S242.25 ; enable fan
G1 Z5.050 F1800.000 ; move to next layer (4)
G1 X182.156 Y202.823 F1800.000 ; move to first external small perimeter point
G1 F600.000
G1 X188.495 Y203.198 E3.40378 ; external small perimeter
G1 X191.339 Y208.876 E3.42611 ; external small perimeter
G1 X187.844 Y214.177 E3.44845 ; external small perimeter
G1 X181.505 Y213.802 E3.47078 ; external small perimeter
G1 X178.661 Y208.124 E3.49312 ; external small perimeter
G1 X182.057 Y202.973 E3.51482 ; external small perimeter
G1 X183.606 Y203.733 F1800.000 ; move to first infill point
G1 F600.000
G1 X181.932 Y205.407 E3.52848 ; infill
G1 X179.727 Y208.753 E3.55159 ; infill
G1 X180.374 Y210.045 E3.55993 ; infill
G1 X186.514 Y203.905 E3.61002 ; infill
G1 X188.147 Y204.002 E3.61945 ; infill
G1 X188.598 Y204.902 E3.62526 ; infill
G1 X181.402 Y212.098 E3.68396 ; infill
G1 X181.853 Y212.998 E3.68976 ; infill
G1 X183.486 Y213.095 E3.69920 ; infill
G1 X189.626 Y206.955 E3.74928 ; infill
G1 X190.273 Y208.247 E3.75762 ; infill
G1 X188.068 Y211.593 E3.78074 ; infill
G1 X186.394 Y213.267 E3.79439 ; infill
M106 S244.8 ; enable fan
G1 Z6.250 F1800.000 ; move to next layer (5)
G1 X182.156 Y202.823 F1800.000 ; move to first external small perimeter point
G1 F600.000
G1 X188.495 Y203.198 E3.81673 ; external small perimeter
G1 X191.339 Y208.876 E3.83906 ; external small perimeter
G1 X187.844 Y214.177 E3.86140 ; external small perimeter
G1 X181.505 Y213.802 E3.88373 ; external small perimeter
G1 X178.661 Y208.124 E3.90607 ; external small perimeter
G1 X182.057 Y202.973 E3.92777 ; external small perimeter
G1 X188.565 Y205.904 F1800.000 ; move to first infill point
G1 F600.000
G1 X186.637 Y203.976 E3.94350 ; infill
G1 X183.362 Y203.782 E3.96242 ; infill
G1 X189.726 Y210.145 E4.01433 ; infill
G1 X188.502 Y212.002 E4.02716 ; infill
G1 X181.498 Y204.998 E4.08429 ; infill
G1 X180.274 Y206.855 E4.09712 ; infill
G1 X186.638 Y213.218 E4.14903 ; infill
G1 X183.363 Y213.024 E4.16795 ; infill
G1 X181.435 Y211.096 E4.18368 ; infill
M106 S242.25 ; enable fan
G1 Z7.450 F1800.000 ; move to next layer (6)
G1 X182.156 Y202.823 F1800.000 ; move to first external small perimeter point
G1 F600.000
G1 X188.495 Y203.198 E4.20601 ; external small perimeter
G1 X191.339 Y208.876 E4.22835 ; external small perimeter
G1 X187.844 Y214.177 E4.25068 ; external small perimeter
G1 X181.505 Y213.802 E4.27302 ; external small perimeter
G1 X178.661 Y208.124 E4.29535 ; external small perimeter
G1 X182.057 Y202.973 E4.31705 ; external small perimeter
G1 X183.606 Y203.733 F1800.000 ; move to first infill point
G1 F600.000
G1 X181.932 Y205.407 E4.33071 ; infill
G1 X179.727 Y208.753 E4.35382 ; infill
G1 X180.374 Y210.045 E4.36216 ; infill
G1 X186.514 Y203.905 E4.41225 ; infill
G1 X188.147 Y204.002 E4.42168 ; infill
G1 X188.598 Y204.902 E4.42749 ; infill
G1 X181.402 Y212.098 E4.48619 ; infill
G1 X181.853 Y212.998 E4.49200 ; infill
G1 X183.486 Y213.095 E4.50143 ; infill
G1 X189.626 Y206.955 E4.55152 ; infill
G1 X190.273 Y208.247 E4.55986 ; infill
G1 X188.068 Y211.593 E4.58297 ; infill
G1 X186.394 Y213.267 E4.59663 ; infill
M106 S244.8 ; enable fan
G1 Z8.650 F1800.000 ; move to next layer (7)
G1 X182.156 Y202.823 F1800.000 ; move to first external small perimeter point
G1 F600.000
G1 X188.495 Y203.198 E4.61896 ; external small perimeter
G1 X191.339 Y208.876 E4.64130 ; external small perimeter
G1 X187.844 Y214.177 E4.66363 ; external small perimeter
G1 X181.505 Y213.802 E4.68596 ; external small perimeter
G1 X178.661 Y208.124 E4.70830 ; external small perimeter
G1 X182.057 Y202.973 E4.73000 ; external small perimeter
G1 X188.565 Y205.904 F1800.000 ; move to first infill point
G1 F600.000
G1 X186.637 Y203.976 E4.74573 ; infill
G1 X183.362 Y203.782 E4.76465 ; infill
G1 X189.726 Y210.145 E4.81656 ; infill
G1 X188.502 Y212.002 E4.82939 ; infill
G1 X181.498 Y204.998 E4.88652 ; infill
G1 X180.274 Y206.855 E4.89935 ; infill
G1 X186.638 Y213.218 E4.95126 ; infill
G1 X183.363 Y213.024 E4.97018 ; infill
G1 X181.435 Y211.096 E4.98591 ; infill
M106 S242.25 ; enable fan
G1 Z9.850 F1800.000 ; move to next layer (8)
G1 X182.156 Y202.823 F1800.000 ; move to first external small perimeter point
G1 F600.000
G1 X188.495 Y203.198 E5.00825 ; external small perimeter
G1 X191.339 Y208.876 E5.03058 ; external small perimeter
G1 X187.844 Y214.177 E5.05291 ; external small perimeter
G1 X181.505 Y213.802 E5.07525 ; external small perimeter
G1 X178.661 Y208.124 E5.09758 ; external small perimeter
G1 X182.057 Y202.973 E5.11928 ; external small perimeter
G1 X183.606 Y203.733 F1800.000 ; move to first infill point
G1 F600.000
G1 X181.932 Y205.407 E5.13294 ; infill
G1 X179.727 Y208.753 E5.15606 ; infill
G1 X180.374 Y210.045 E5.16439 ; infill
G1 X186.514 Y203.905 E5.21448 ; infill
G1 X188.147 Y204.002 E5.22392 ; infill
G1 X188.598 Y204.902 E5.22972 ; infill
G1 X181.402 Y212.098 E5.28842 ; infill
G1 X181.853 Y212.998 E5.29423 ; infill
G1 X183.486 Y213.095 E5.30366 ; infill
G1 X189.626 Y206.955 E5.35375 ; infill
G1 X190.273 Y208.247 E5.36209 ; infill
G1 X188.068 Y211.593 E5.38520 ; infill
G1 X186.394 Y213.267 E5.39886 ; infill
M106 S244.8 ; enable fan
G1 Z11.050 F1800.000 ; move to next layer (9)
G1 X182.156 Y202.823 F1800.000 ; move to first external small perimeter point
G1 F600.000
G1 X188.495 Y203.198 E5.42119 ; external small perimeter
G1 X191.339 Y208.876 E5.44353 ; external small perimeter
G1 X187.844 Y214.177 E5.46586 ; external small perimeter
G1 X181.505 Y213.802 E5.48820 ; external small perimeter
G1 X178.661 Y208.124 E5.51053 ; external small perimeter
G1 X182.057 Y202.973 E5.53223 ; external small perimeter
G1 X188.565 Y205.904 F1800.000 ; move to first infill point
G1 F600.000
G1 X186.637 Y203.976 E5.54796 ; infill
G1 X183.362 Y203.782 E5.56688 ; infill
G1 X189.726 Y210.145 E5.61880 ; infill
G1 X188.502 Y212.002 E5.63162 ; infill
G1 X181.498 Y204.998 E5.68876 ; infill
G1 X180.274 Y206.855 E5.70158 ; infill
G1 X186.638 Y213.218 E5.75349 ; infill
G1 X183.363 Y213.024 E5.77241 ; infill
G1 X181.435 Y211.096 E5.78814 ; infill
M106 S242.25 ; enable fan
G1 Z12.250 F1800.000 ; move to next layer (10)
G1 X182.156 Y202.823 F1800.000 ; move to first external small perimeter point
G1 F600.000
G1 X188.495 Y203.198 E5.81048 ; external small perimeter
G1 X191.339 Y208.876 E5.83281 ; external small perimeter
G1 X187.844 Y214.177 E5.85515 ; external small perimeter
G1 X181.505 Y213.802 E5.87748 ; external small perimeter
G1 X178.661 Y208.124 E5.89982 ; external small perimeter
G1 X182.057 Y202.973 E5.92152 ; external small perimeter
G1 X183.606 Y203.733 F1800.000 ; move to first infill point
G1 F600.000
G1 X181.932 Y205.407 E5.93518 ; infill
G1 X179.727 Y208.753 E5.95829 ; infill
G1 X180.374 Y210.045 E5.96663 ; infill
G1 X186.514 Y203.905 E6.01672 ; infill
G1 X188.147 Y204.002 E6.02615 ; infill
G1 X188.598 Y204.902 E6.03196 ; infill
G1 X181.402 Y212.098 E6.09065 ; infill
G1 X181.853 Y212.998 E6.09646 ; infill
G1 X183.486 Y213.095 E6.10589 ; infill
G1 X189.626 Y206.955 E6.15598 ; infill
G1 X190.273 Y208.247 E6.16432 ; infill
G1 X188.068 Y211.593 E6.18744 ; infill
G1 X186.394 Y213.267 E6.20109 ; infill
M106 S244.8 ; enable fan
G1 Z13.450 F1800.000 ; move to next layer (11)
G1 X182.156 Y202.823 F1800.000 ; move to first external small perimeter point
G1 F600.000
G1 X188.495 Y203.198 E6.22343 ; external small perimeter
G1 X191.339 Y208.876 E6.24576 ; external small perimeter
G1 X187.844 Y214.177 E6.26810 ; external small perimeter
G1 X181.505 Y213.802 E6.29043 ; external small perimeter
G1 X178.661 Y208.124 E6.31276 ; external small perimeter
G1 X182.057 Y202.973 E6.33447 ; external small perimeter
G1 X188.565 Y205.904 F1800.000 ; move to first infill point
G1 F600.000
G1 X186.637 Y203.976 E6.35020 ; infill
G1 X183.362 Y203.782 E6.36912 ; infill
G1 X189.726 Y210.145 E6.42103 ; infill
G1 X188.502 Y212.002 E6.43385 ; infill
G1 X181.498 Y204.998 E6.49099 ; infill
G1 X180.274 Y206.855 E6.50382 ; infill
G1 X186.638 Y213.218 E6.55573 ; infill
G1 X183.363 Y213.024 E6.57465 ; infill
G1 X181.435 Y211.096 E6.59038 ; infill
M106 S242.25 ; enable fan
G1 Z14.650 F1800.000 ; move to next layer (12)
G1 X182.156 Y202.823 F1800.000 ; move to first external small perimeter point
G1 F600.000
G1 X188.495 Y203.198 E6.61271 ; external small perimeter
G1 X191.339 Y208.876 E6.63505 ; external small perimeter
G1 X187.844 Y214.177 E6.65738 ; external small perimeter
G1 X181.505 Y213.802 E6.67971 ; external small perimeter
G1 X178.661 Y208.124 E6.70205 ; external small perimeter
G1 X182.057 Y202.973 E6.72375 ; external small perimeter
G1 X183.606 Y203.733 F1800.000 ; move to first infill point
G1 F600.000
G1 X181.932 Y205.407 E6.73741 ; infill
G1 X179.727 Y208.753 E6.76052 ; infill
G1 X180.374 Y210.045 E6.76886 ; infill
G1 X186.514 Y203.905 E6.81895 ; infill
G1 X188.147 Y204.002 E6.82838 ; infill
G1 X188.598 Y204.902 E6.83419 ; infill
G1 X181.402 Y212.098 E6.89289 ; infill
G1 X181.853 Y212.998 E6.89869 ; infill
G1 X183.486 Y213.095 E6.90813 ; infill
G1 X189.626 Y206.955 E6.95822 ; infill
G1 X190.273 Y208.247 E6.96655 ; infill
G1 X188.068 Y211.593 E6.98967 ; infill
G1 X186.394 Y213.267 E7.00333 ; infill
M106 S244.8 ; enable fan
G1 Z15.850 F1800.000 ; move to next layer (13)
G1 X182.156 Y202.823 F1800.000 ; move to first external small perimeter point
G1 F600.000
G1 X188.495 Y203.198 E7.02566 ; external small perimeter
G1 X191.339 Y208.876 E7.04800 ; external small perimeter
G1 X187.844 Y214.177 E7.07033 ; external small perimeter
G1 X181.505 Y213.802 E7.09266 ; external small perimeter
G1 X178.661 Y208.124 E7.11500 ; external small perimeter
G1 X182.057 Y202.973 E7.13670 ; external small perimeter
G1 X188.565 Y205.904 F1800.000 ; move to first infill point
G1 F600.000
G1 X186.637 Y203.976 E7.15243 ; infill
G1 X183.362 Y203.782 E7.17135 ; infill
G1 X189.726 Y210.145 E7.22326 ; infill
G1 X188.502 Y212.002 E7.23609 ; infill
G1 X181.498 Y204.998 E7.29322 ; infill
G1 X180.274 Y206.855 E7.30605 ; infill
G1 X186.638 Y213.218 E7.35796 ; infill
G1 X183.363 Y213.024 E7.37688 ; infill
G1 X181.435 Y211.096 E7.39261 ; infill
M106 S242.25 ; enable fan
G1 Z17.050 F1800.000 ; move to next layer (14)
G1 X182.156 Y202.823 F1800.000 ; move to first external small perimeter point
G1 F600.000
G1 X188.495 Y203.198 E7.41494 ; external small perimeter
G1 X191.339 Y208.876 E7.43728 ; external small perimeter
G1 X187.844 Y214.177 E7.45961 ; external small perimeter
G1 X181.505 Y213.802 E7.48195 ; external small perimeter
G1 X178.661 Y208.124 E7.50428 ; external small perimeter
G1 X182.057 Y202.973 E7.52598 ; external small perimeter
G1 X183.606 Y203.733 F1800.000 ; move to first infill point
G1 F600.000
G1 X181.932 Y205.407 E7.53964 ; infill
G1 X179.727 Y208.753 E7.56275 ; infill
G1 X180.374 Y210.045 E7.57109 ; infill
G1 X186.514 Y203.905 E7.62118 ; infill
G1 X188.147 Y204.002 E7.63062 ; infill
G1 X188.598 Y204.902 E7.63642 ; infill
G1 X181.402 Y212.098 E7.69512 ; infill
G1 X181.853 Y212.998 E7.70093 ; infill
G1 X183.486 Y213.095 E7.71036 ; infill
G1 X189.626 Y206.955 E7.76045 ; infill
